X: 139
U:~=!turn!
M:C
L:1/8
K:G
f | g>dgB {/B}A>GE>e | g>dg>B g>dg>a | b/a/g/f/ g>B {/B}A>GE>e | d>c{/c}B>A BGG ::
a | g/g/g b>g {/b}a>ge>a | g/g/g b>g a>gb>g | a<gb>g a<ge>g | d>cB>A BGG ::
(D/E/F) | G>DB,>D E<(A, A,)(E/F/) | G>DB,>D G,>DB,>D | C>EB,>D E<A,A,>F | G/F/E/D/ B,>A, B,G,G, :|


